svgs/thin/grid-2-plus.svg

<svg xmlns="http://www.w3.org/2000/svg" viewBox="0 0 512 512"><!--! Font Awesome Pro 6.4.2 by @fontawesome - https://fontawesome.com License - https://fontawesome.com/license (Commercial License) Copyright 2023 Fonticons, Inc. --><path d="M176 48H80C62.3 48 48 62.3 48 80v96c0 17.7 14.3 32 32 32h96c17.7 0 32-14.3 32-32V80c0-17.7-14.3-32-32-32zM80 32h96c26.5 0 48 21.5 48 48v96c0 26.5-21.5 48-48 48H80c-26.5 0-48-21.5-48-48V80c0-26.5 21.5-48 48-48zm96 272H80c-17.7 0-32 14.3-32 32v96c0 17.7 14.3 32 32 32h96c17.7 0 32-14.3 32-32V336c0-17.7-14.3-32-32-32zM80 288h96c26.5 0 48 21.5 48 48v96c0 26.5-21.5 48-48 48H80c-26.5 0-48-21.5-48-48V336c0-26.5 21.5-48 48-48zM336 48c-17.7 0-32 14.3-32 32v96c0 17.7 14.3 32 32 32h96c17.7 0 32-14.3 32-32V80c0-17.7-14.3-32-32-32H336zM288 80c0-26.5 21.5-48 48-48h96c26.5 0 48 21.5 48 48v96c0 26.5-21.5 48-48 48H336c-26.5 0-48-21.5-48-48V80zm96 192c4.4 0 8 3.6 8 8v96h96c4.4 0 8 3.6 8 8s-3.6 8-8 8H392v96c0 4.4-3.6 8-8 8s-8-3.6-8-8V392H280c-4.4 0-8-3.6-8-8s3.6-8 8-8h96V280c0-4.4 3.6-8 8-8z"/></svg>

<svg xmlns="http://www.w3.org/2000/svg" viewBox="0 0 512 512"><!--! Font Awesome Pro 6.1.1 by @fontawesome - https://fontawesome.com License - https://fontawesome.com/license (Commercial License) Copyright 2022 Fonticons, Inc. --><path d="M176 32C202.5 32 224 53.49 224 80V176C224 202.5 202.5 224 176 224H80C53.49 224 32 202.5 32 176V80C32 53.49 53.49 32 80 32H176zM176 48H80C62.33 48 48 62.33 48 80V176C48 193.7 62.33 208 80 208H176C193.7 208 208 193.7 208 176V80C208 62.33 193.7 48 176 48zM176 288C202.5 288 224 309.5 224 336V432C224 458.5 202.5 480 176 480H80C53.49 480 32 458.5 32 432V336C32 309.5 53.49 288 80 288H176zM176 304H80C62.33 304 48 318.3 48 336V432C48 449.7 62.33 464 80 464H176C193.7 464 208 449.7 208 432V336C208 318.3 193.7 304 176 304zM288 80C288 53.49 309.5 32 336 32H432C458.5 32 480 53.49 480 80V176C480 202.5 458.5 224 432 224H336C309.5 224 288 202.5 288 176V80zM304 80V176C304 193.7 318.3 208 336 208H432C449.7 208 464 193.7 464 176V80C464 62.33 449.7 48 432 48H336C318.3 48 304 62.33 304 80zM384 272C388.4 272 392 275.6 392 280V376H488C492.4 376 496 379.6 496 384C496 388.4 492.4 392 488 392H392V488C392 492.4 388.4 496 384 496C379.6 496 376 492.4 376 488V392H280C275.6 392 272 388.4 272 384C272 379.6 275.6 376 280 376H376V280C376 275.6 379.6 272 384 272z"/></svg>
